X:1
T:Title
%%score 1 2 3 4
L:1/8
M:2/2
K:C
V:1 treble nm="Part_1"
V:2 treble-8 nm="Part_2"
V:3 treble-8 nm="Part_3"
V:4 bass nm="Part_4"
V:1
 A8 | G4 F4 | E8 | D3 E F2 E2- | E2 G4 FE | D4 z2 A2- | A2 GF E2 D2 | F2 G2 A4 | _B8 | A4 A4- | %10
 A2 GF G4 | A8 | z2 A3 B c2- | c BAG A2 GF | E8 ||[M:2/2] z8 | A4 c4- | c2 BA G2 A2 | E4 z2 F2- | %19
 F2 ED C2 D2 | A,2 A2 F2 A2 | F2 A2 G4 | z2 G4 G2 | F3 G A2 F2 | G2 E2 F2 D2 | G8 | !fermata!F8- | %27
 F8 ||[M:2/2] A6 GF | E4 (3:2:2F4 G2 | A2 A3 GFE | D8 | z4 A4 | _B3 A G2 FE | D4 E4 | D4 z4 | %36
 z4 z2 G2 | F2 A2 _B2 c2- | c_B A4 G2 | A8- | A8 |] %41
V:2
[K:F] d8 | B2 c2 d2 A2- | A2 GF E4 | F4 z4 | z4 z2 d2- | d2 cB A4 | z2 c3 B A2- | AG F4 E2 | F8 | %9
 E4 F4 | G4 z2 d2 | e2 f3 e dc | d2 cB A3 B | c8- | c8 ||[M:2/2] d4 f4- | f2 ed c3 d | e4 z2 A2- | %18
 AB c3 BAG | F4 z2 F2- | FG A3 G FE | D4 E2 C2 | E2 C2 E2 C2 | F2 D2 F2 D2 | E4 D2 d2- | %25
 dB _e3 B c2 | d4 d4 | d8 ||[M:2/2] c3 d e2 e2- | e dcB A4- | A4 A4 | B2 d4 cB | A4 z2 c2 | %33
 B2 d2 e2 f2- | fe d4 c2 | d4 e2 f2- | fe d4 c2 | d3 cBA A2 | c4 F2 G2 | D2 E2 F4 | E8 |] %41
V:3
[K:F] z8 | z4 A4- | A8 | B4 A4 | G8 | F8 | F4 A4- | A4 A4 | d8 | c4 A4 | B8 | A8- | A8 | A8- | %14
 A8 ||[M:2/2] z8 | z4 A4 | c8 | c4 A4- | A4 A4 | F8 | F4 G4- | G4 G4 | A8 | G4 F4 | _E8 | D8 | %27
 D8 ||[M:2/2] A3 B c2 c2- | c BAG F4 | z4 F4- | F4 F4 | F8 | G4 z4 | z4 z2 G2 | F2 A2 B2 c2- | %36
 cB A4 G2 | A4 d2 c2 | A4 B4 | A8- | A8 |] %41
V:4
[K:F] D,8 | _E,4 D,4 | C,8 | B,,3 C, D,2 C,2- | C,2 B,,A,, G,,4 | z2 D,4 C,B,, | A,,4 z2 F,2- | %7
 F,2 E,D, C,4 | B,,8 | C,4 D,4 | G,,8 | z2 D,3 E, F,2- | F, E,D,C, D,2 C,B,, | A,,8- | A,,8 || %15
[M:2/2] z4 D,4 | F,6 E,D, | C,3 D, E,2 F,2 | C,3 B,, C,2 D,2- | D,2 C,B,, A,,2 D,2- | %20
 D,E, F,2 D,4 | z4 z2 E,2 | C,2 E,2 C,2 E,2 | D,2 F,2 D,2 F,2 | C,4 D,4 | z4 G,4 | A,2 F,2 B,4 | %27
 A,8 ||[M:2/2] A,,8 | A,,4 D,3 E, | F,2 F,3 E,D,C, | B,,4 B,,3 C, | D,2 D,3 C,B,,A,, | %33
 G,,4 C,2 D,2- | D,E, F,2 G,2 E,2 | F,2 D,2 G,2 F,2 | D,4 E,4 | D,4 z2 A,2- | A,2 F,2 D,2 E,2 | %39
 F,2 C,2 D,4 | A,,8 |] %41

